assets/img/braze_icons/server-01.svg

<svg fill="none" height="24" viewBox="0 0 24 24" width="24" xmlns="http://www.w3.org/2000/svg"><g clip-rule="evenodd" fill="#801ed7" fill-rule="evenodd"><path d="m18.8385 1h-13.67704c-.52712-.000015-.98193-.000029-1.35648.03057-.39535.0323-.78857.10362-1.16695.29641-.56448.28762-1.02343.74657-1.31105 1.31105-.19279.37838-.26411.7716-.29641 1.16695-.030599.37455-.030585.82929-.03057 1.3564v1.67717c-.000015.52711-.000029.98193.03057 1.35648.0323.39535.10362.78857.29641 1.16694.28762.56449.74657 1.02343 1.31105 1.31103.37838.1928.7716.2641 1.16695.2964.37457.0306.82933.0306 1.35647.0306h13.67705c.5272 0 .982 0 1.3565-.0306.3954-.0323.7886-.1036 1.167-.2964.5645-.2876 1.0234-.74654 1.311-1.31103.1928-.37837.2641-.77159.2964-1.16694.0306-.37456.0306-.82932.0306-1.35646v-1.67713c0-.52714 0-.9819-.0306-1.35646-.0323-.39535-.1036-.78857-.2964-1.16695-.2876-.56448-.7465-1.02343-1.311-1.31105-.3784-.19279-.7716-.26411-1.167-.29641-.3745-.030599-.8293-.030585-1.3565-.03057zm-12.8385 3.75c-.69035 0-1.25.55965-1.25 1.25 0 .69036.55965 1.25 1.25 1.25.69036 0 1.25-.55964 1.25-1.25 0-.69035-.55964-1.25-1.25-1.25z"/><path d="m18.8385 13h-13.67704c-.52715 0-.98191 0-1.35648.0306-.39535.0323-.78857.1036-1.16695.2964-.56448.2876-1.02343.7465-1.31105 1.311-.19279.3784-.26411.7716-.29641 1.167-.030599.3745-.030585.8293-.03057 1.3564v1.6771c-.000015.5272-.000029.982.03057 1.3565.0323.3954.10362.7886.29641 1.167.28762.5645.74657 1.0234 1.31105 1.311.37838.1928.7716.2641 1.16695.2964.37457.0306.82934.0306 1.3565.0306h13.67702c.5272 0 .982 0 1.3565-.0306.3954-.0323.7886-.1036 1.167-.2964.5645-.2876 1.0234-.7465 1.311-1.311.1928-.3784.2641-.7716.2964-1.167.0306-.3745.0306-.8293.0306-1.3564v-1.6772c0-.5271 0-.9819-.0306-1.3564-.0323-.3954-.1036-.7886-.2964-1.167-.2876-.5645-.7465-1.0234-1.311-1.311-.3784-.1928-.7716-.2641-1.167-.2964-.3745-.0306-.8293-.0306-1.3565-.0306zm-14.0885 5c0-.6904.55965-1.25 1.25-1.25.69036 0 1.25.5596 1.25 1.25s-.55964 1.25-1.25 1.25c-.69035 0-1.25-.5596-1.25-1.25z"/></g></svg>

<svg width="24" height="24" viewBox="0 0 24 24" fill="none" xmlns="http://www.w3.org/2000/svg">
<path fill-rule="evenodd" clip-rule="evenodd" d="M18.8385 1H5.16146C4.63434 0.999985 4.17953 0.999971 3.80498 1.03057C3.40963 1.06287 3.01641 1.13419 2.63803 1.32698C2.07355 1.6146 1.6146 2.07355 1.32698 2.63803C1.13419 3.01641 1.06287 3.40963 1.03057 3.80498C0.999971 4.17953 0.999985 4.63427 1 5.16138V6.83855C0.999985 7.36566 0.999971 7.82048 1.03057 8.19503C1.06287 8.59038 1.13419 8.9836 1.32698 9.36197C1.6146 9.92646 2.07355 10.3854 2.63803 10.673C3.01641 10.8658 3.40963 10.9371 3.80498 10.9694C4.17955 11 4.63431 11 5.16145 11H18.8385C19.3657 11 19.8205 11 20.195 10.9694C20.5904 10.9371 20.9836 10.8658 21.362 10.673C21.9265 10.3854 22.3854 9.92646 22.673 9.36197C22.8658 8.9836 22.9371 8.59038 22.9694 8.19503C23 7.82047 23 7.36571 23 6.83857V5.16144C23 4.6343 23 4.17954 22.9694 3.80498C22.9371 3.40963 22.8658 3.01641 22.673 2.63803C22.3854 2.07355 21.9265 1.6146 21.362 1.32698C20.9836 1.13419 20.5904 1.06287 20.195 1.03057C19.8205 0.999971 19.3657 0.999985 18.8385 1ZM6 4.75C5.30965 4.75 4.75 5.30965 4.75 6C4.75 6.69036 5.30965 7.25 6 7.25C6.69036 7.25 7.25 6.69036 7.25 6C7.25 5.30965 6.69036 4.75 6 4.75Z" fill="#801ED7"/>
<path fill-rule="evenodd" clip-rule="evenodd" d="M18.8385 13H5.16146C4.63431 13 4.17955 13 3.80498 13.0306C3.40963 13.0629 3.01641 13.1342 2.63803 13.327C2.07355 13.6146 1.6146 14.0735 1.32698 14.638C1.13419 15.0164 1.06287 15.4096 1.03057 15.805C0.999971 16.1795 0.999985 16.6343 1 17.1614V18.8385C0.999985 19.3657 0.999971 19.8205 1.03057 20.195C1.06287 20.5904 1.13419 20.9836 1.32698 21.362C1.6146 21.9265 2.07355 22.3854 2.63803 22.673C3.01641 22.8658 3.40963 22.9371 3.80498 22.9694C4.17955 23 4.63432 23 5.16148 23H18.8385C19.3657 23 19.8205 23 20.195 22.9694C20.5904 22.9371 20.9836 22.8658 21.362 22.673C21.9265 22.3854 22.3854 21.9265 22.673 21.362C22.8658 20.9836 22.9371 20.5904 22.9694 20.195C23 19.8205 23 19.3657 23 18.8386V17.1614C23 16.6343 23 16.1795 22.9694 15.805C22.9371 15.4096 22.8658 15.0164 22.673 14.638C22.3854 14.0735 21.9265 13.6146 21.362 13.327C20.9836 13.1342 20.5904 13.0629 20.195 13.0306C19.8205 13 19.3657 13 18.8385 13ZM4.75 18C4.75 17.3096 5.30965 16.75 6 16.75C6.69036 16.75 7.25 17.3096 7.25 18C7.25 18.6904 6.69036 19.25 6 19.25C5.30965 19.25 4.75 18.6904 4.75 18Z" fill="#801ED7"/>
</svg>
